X:23
T:Rose In The Gap, The
R:march
Z:id:hn-march-23
M:C|
L:1/8
Q:1/2=80
K:Edor
B3c B2AF | B2E2 E2 (3FGA | B3c B2AF | A2D2 D2FA |
B3c B2AF | AFAB d3e | fedc (3Bcd AF |1 A2D2 D2FA :|2 A2D2 D2de ||
|: fedc (3Bcd AF | B2E2 E2de | fedc (3Bcd AF | A2D2 D2de |
fedc (3Bcd AF | AFAB d2de | fedc (3Bcd AF |1 A2D2 D2de :|2 A2D2 D2B2 ||
|: e3g f2 (3efg | f2e2 e2B2 | eBeg f2 (3efg | f2d2 d2B2 |
eBeg f2ec | dcde f3e | fedc (3Bcd AF |1 A2D2 D2B2 :|2 A2D2 D2FA ||

